packages/foundations/assets/icons/functional/images/human/restricted_mobility_toilet_12.svg

<svg width="12" height="12" viewBox="0 0 12 12" fill="none" xmlns="http://www.w3.org/2000/svg">
<g clip-path="url(#clip0_232_255)">
<path fill-rule="evenodd" clip-rule="evenodd" d="M2.4561 7.32722C2.70045 7.51122 2.7828 7.89082 2.57449 8.16745C2.45793 8.32225 2.39421 8.50948 2.39421 8.70797C2.39421 9.20502 2.79716 9.60797 3.29421 9.60797C3.46289 9.60797 3.65671 9.56536 3.84376 9.42079C4.10596 9.21816 4.48278 9.26645 4.68541 9.52864C4.88804 9.79083 4.83976 10.1677 4.57757 10.3703C4.21281 10.6522 3.76456 10.808 3.29421 10.808C2.13442 10.808 1.19421 9.86776 1.19421 8.70797C1.19421 8.24679 1.34397 7.80671 1.61587 7.44562C1.8152 7.1809 2.19138 7.12789 2.4561 7.32722ZM4.1667 6.11823C4.32226 6.58086 4.47667 7.0441 4.62994 7.50797H5.30185C5.74988 7.50797 6.198 7.75519 6.40482 8.23526C6.65389 8.81337 6.90194 9.39215 7.14897 9.97161C7.27951 10.2762 7.13842 10.6289 6.83384 10.7595C6.55102 10.8807 6.18183 10.7595 6.046 10.4443C5.79686 9.86628 5.54881 9.28749 5.30185 8.70797H4.62994C4.14571 8.70797 3.71241 8.41747 3.52555 7.97741L3.02828 6.4977C2.92349 6.18334 3.09338 5.84354 3.40775 5.73876C3.69966 5.64145 4.05269 5.77918 4.1667 6.11823ZM3.2943 3.76716C3.66853 3.76716 3.98519 4.08382 3.98519 4.45805C3.98519 4.8467 3.66853 5.14894 3.2943 5.14894C2.9057 5.14894 2.60341 4.8467 2.60341 4.45805C2.60341 4.08382 2.9057 3.76716 3.2943 3.76716ZM4.44163 1.60703C4.44163 1.36785 4.65559 1.2168 4.85699 1.2168C5.02064 1.2168 5.1905 1.31605 5.23465 1.5189L5.58387 3.12495L5.97728 1.50633C6.02344 1.31646 6.20385 1.2168 6.36746 1.2168C6.53112 1.2168 6.71169 1.31271 6.75769 1.50633L7.14252 3.13092L7.48775 1.5189C7.53391 1.30401 7.70175 1.2168 7.86537 1.2168C8.07933 1.2168 8.28073 1.36785 8.28073 1.60703C8.28073 1.64481 8.27819 1.68179 8.26816 1.7203L7.5381 4.52728C7.48586 4.72819 7.31153 4.8168 7.14791 4.8168C6.98426 4.8168 6.81424 4.72702 6.75769 4.52728L6.35489 3.10494L5.9521 4.52728C5.89462 4.73028 5.72553 4.8168 5.56188 4.8168C5.39826 4.8168 5.22333 4.71574 5.17169 4.51471L4.4542 1.7203C4.44433 1.68175 4.44163 1.64481 4.44163 1.60703ZM8.40165 3.01067C8.40165 1.36637 9.37324 1.19202 9.79681 1.19202C10.0459 1.19202 10.3075 1.24184 10.5442 1.35394C10.7186 1.42868 10.7934 1.56568 10.7934 1.70273C10.7934 1.91447 10.6314 2.12626 10.4072 2.12626C10.3573 2.12626 10.2951 2.11378 10.2453 2.08891C10.1082 2.0266 9.97116 1.98925 9.83416 1.98925C9.65976 1.98925 9.19888 1.98925 9.19888 3.01067C9.19888 3.99478 9.60994 3.99478 9.83416 3.99478C9.98364 3.98234 10.1331 3.94495 10.2701 3.89513C10.32 3.88269 10.3698 3.87021 10.4196 3.87021C10.6439 3.87021 10.8058 4.082 10.8058 4.29374C10.8058 4.44323 10.7311 4.58027 10.5442 4.65497C10.3075 4.72975 10.0584 4.77958 9.80925 4.79202C9.28606 4.79202 8.40165 4.55532 8.40165 3.01067Z" fill="#1A1C1F"/>
</g>
<defs>
<clipPath id="clip0_232_255">
<rect width="12" height="12" fill="white"/>
</clipPath>
</defs>
</svg>

<svg xmlns="http://www.w3.org/2000/svg" width="12" height="12" fill="none"><g clip-path="url(#a)"><path fill="#1A1C1F" fill-rule="evenodd" d="M2.456 7.327a.607.607 0 0 1 .118.84.9.9 0 0 0 1.27 1.253.6.6 0 0 1 .734.95 2.1 2.1 0 0 1-2.962-2.925.6.6 0 0 1 .84-.118m1.71-1.209q.233.694.464 1.39h.672c.448 0 .896.247 1.103.727q.373.867.744 1.737a.6.6 0 0 1-.315.787.61.61 0 0 1-.788-.315q-.374-.867-.744-1.736H4.63a1.2 1.2 0 0 1-1.104-.73l-.498-1.48a.6.6 0 1 1 1.139-.38m-.872-2.35a.7.7 0 0 1 .691.69c0 .389-.316.69-.69.69a.68.68 0 0 1-.692-.69c0-.374.303-.69.691-.69m1.148-2.161c0-.24.214-.39.415-.39.164 0 .333.1.378.302l.349 1.606.393-1.619c.046-.19.227-.29.39-.29.164 0 .345.097.39.29l.386 1.625.345-1.612a.37.37 0 0 1 .377-.302c.214 0 .416.15.416.39a.4.4 0 0 1-.013.113l-.73 2.807c-.052.201-.226.29-.39.29a.39.39 0 0 1-.39-.29l-.403-1.422-.403 1.422a.39.39 0 0 1-.39.29.4.4 0 0 1-.39-.302L4.454 1.72a.5.5 0 0 1-.012-.113m3.96 1.404c0-1.645.971-1.819 1.395-1.819.249 0 .51.05.747.162.175.075.25.212.25.349 0 .211-.163.423-.387.423a.4.4 0 0 1-.162-.037 1 1 0 0 0-.41-.1c-.175 0-.636 0-.636 1.022 0 .984.41.984.635.984.15-.013.3-.05.436-.1.05-.012.1-.025.15-.025.224 0 .386.212.386.424 0 .15-.075.286-.262.361a3 3 0 0 1-.735.137c-.523 0-1.407-.237-1.407-1.781" clip-rule="evenodd"/></g><defs><clipPath id="a"><path fill="#fff" d="M0 0h12v12H0z"/></clipPath></defs></svg>
